logo/opentelemetry-icon.svg

<?xml version="1.0" encoding="UTF-8"?>
<svg width="256px" height="256px" viewBox="0 0 256 256" version="1.1" xmlns="http://www.w3.org/2000/svg" xmlns:xlink="http://www.w3.org/1999/xlink" preserveAspectRatio="xMidYMid">
    <title>OpenTelemetry</title>
    <g>
        <path d="M135.440226,139.917846 C124.533857,150.823064 124.533857,168.505096 135.440226,179.410315 C146.346595,190.315534 164.030494,190.315534 174.936863,179.410315 C185.843232,168.505096 185.843232,150.823064 174.936863,139.917846 C164.030494,129.012627 146.346595,129.012627 135.440226,139.917846 Z M164.965326,169.465794 C159.564076,174.866474 150.813013,174.866474 145.411764,169.465794 C140.010514,164.065115 140.010514,155.314975 145.411764,149.914296 C150.813013,144.513616 159.564076,144.513616 164.965326,149.914296 C170.366575,155.289011 170.366575,164.065115 164.965326,169.465794 Z M174.469447,2.51209494 L157.356835,19.6229018 C154.007021,22.9723617 154.007021,28.4769005 157.356835,31.8263604 L224.17133,98.6338051 C227.521143,101.983265 233.026263,101.983265 236.376076,98.6338051 L253.488689,81.5229982 C256.838502,78.1735382 256.838502,72.6689995 253.488689,69.3195396 L186.648226,2.51209494 C183.298413,-0.837364979 177.819261,-0.837364979 174.469447,2.51209494 L174.469447,2.51209494 Z M54.577289,221.161723 C57.6154919,218.12384 57.6154919,213.164562 54.577289,210.12668 L45.8781613,201.42847 C42.8399584,198.390588 37.8801572,198.390588 34.8419544,201.42847 L16.8724128,219.396116 L16.8464452,219.42208 L11.9126116,214.488768 C9.18601927,211.762462 4.74556897,211.762462 2.04494422,214.488768 C-0.681648073,217.215072 -0.681648073,221.655053 2.04494422,224.355393 L31.6479462,253.955272 C34.3745385,256.681576 38.8149888,256.681576 41.5156136,253.955272 C44.2162383,251.228967 44.2422059,246.788985 41.5156136,244.088646 L36.5817799,239.155333 L36.6077475,239.129367 L54.577289,221.161723 Z" fill="#F5A800"></path>
        <path d="M145.100153,51.637507 L107.083666,89.6499823 C103.707885,93.025407 103.707885,98.5818754 107.083666,101.9573 L130.558328,125.429484 C147.151589,113.485674 170.41851,114.965668 185.349849,129.895431 L204.358092,110.889194 C207.733873,107.513769 207.733873,101.9573 204.358092,98.5818754 L157.40877,51.637507 C154.032989,48.2361175 148.475934,48.2361175 145.100153,51.637507 Z M120.69066,135.322075 L106.823991,121.45687 C103.578048,118.211268 98.2547008,118.211268 95.0087576,121.45687 L46.1118692,170.374563 C42.865926,173.620164 42.865926,178.942949 46.1118692,182.188549 L73.8192404,209.892997 C77.0651836,213.138597 82.3885304,213.138597 85.6344736,209.892997 L117.081171,178.397687 C110.43348,164.662306 111.627987,148.070795 120.69066,135.322075 Z" fill="#425CC7"></path>
    </g>
</svg>

<svg viewBox="0 0 256 256" xmlns="http://www.w3.org/2000/svg"><path fill="#F5A800" d="M135.44 139.91c-10.91 10.9-10.91 28.58 0 39.49 10.9 10.9 28.59 10.9 39.49 0 10.9-10.91 10.9-28.59 0-39.5 -10.91-10.91-28.6-10.91-39.5 0Zm29.52 29.54c-5.41 5.4-14.16 5.4-19.56 0 -5.41-5.41-5.41-14.16 0-19.56 5.4-5.41 14.15-5.41 19.55 0 5.4 5.37 5.4 14.15 0 19.55Zm9.5-166.96L157.34 19.6c-3.35 3.34-3.35 8.85 0 12.2l66.81 66.8c3.34 3.34 8.85 3.34 12.2 0l17.11-17.12c3.34-3.35 3.34-8.86 0-12.21L186.61 2.46c-3.35-3.35-8.83-3.35-12.18-.001v0ZM54.56 221.13c3.03-3.04 3.03-8 0-11.04l-8.7-8.7c-3.04-3.04-8-3.04-11.04 0l-17.97 17.96 -.03.02 -4.94-4.94c-2.73-2.73-7.17-2.73-9.87 0 -2.73 2.72-2.73 7.16 0 9.86l29.6 29.59c2.72 2.72 7.16 2.72 9.86 0 2.7-2.73 2.72-7.17 0-9.87l-4.94-4.94 .02-.03 17.96-17.97Z"/><path fill="#425CC7" d="M145.1 51.63l-38.02 38.01c-3.38 3.37-3.38 8.93 0 12.3l23.47 23.47c16.59-11.95 39.86-10.47 54.79 4.46l19-19.01c3.37-3.38 3.37-8.94 0-12.31L157.39 51.6c-3.38-3.41-8.94-3.41-12.31 0Zm-24.41 83.68l-13.87-13.87c-3.25-3.25-8.57-3.25-11.82 0l-48.9 48.91c-3.25 3.24-3.25 8.56 0 11.81l27.7 27.7c3.24 3.24 8.56 3.24 11.81 0l31.44-31.5c-6.65-13.74-5.46-30.33 3.6-43.08Z"/></svg>
